X: 40081
T: Thugamar Fein An Samhradh Linn
R: waltz
M: 3/4
K: Dmixolydian
A3B d2|e4 e2|e3f d2|e4 A2|
d3e f2|g3f e2|f3e d2|B6|
g3a ge|f3e d2|e4 A2|d4 B2|
A3g f2|g4 e2|d4 B2|A6||

